libs/icons/src/svg/instagram.svg

<svg width="16" height="16" viewBox="0 0 16 16" fill="none" xmlns="http://www.w3.org/2000/svg">
<g clip-path="url(#clip0_134_228)">
<path fill-rule="evenodd" clip-rule="evenodd" d="M8.00002 1.98802C9.95802 1.98802 10.19 1.99535 10.9634 2.03069C11.4283 2.0361 11.8888 2.12158 12.3247 2.28335C12.6434 2.40076 12.9316 2.58826 13.168 2.83202C13.4118 3.06848 13.5993 3.35669 13.7167 3.67535C13.8785 4.11125 13.9639 4.57177 13.9694 5.03669C14.0047 5.81002 14.012 6.04202 14.012 8.00002C14.012 9.95802 14.0047 10.19 13.9694 10.9634C13.9639 11.4283 13.8785 11.8888 13.7167 12.3247C13.5946 12.641 13.4077 12.9283 13.168 13.168C12.9283 13.4077 12.641 13.5946 12.3247 13.7167C11.8888 13.8785 11.4283 13.9639 10.9634 13.9694C10.19 14.0047 9.95802 14.012 8.00002 14.012C6.04202 14.012 5.81002 14.0047 5.03669 13.9694C4.57177 13.9639 4.11125 13.8785 3.67535 13.7167C3.35669 13.5993 3.06848 13.4118 2.83202 13.168C2.58826 12.9316 2.40076 12.6434 2.28335 12.3247C2.12158 11.8888 2.0361 11.4283 2.03069 10.9634C1.99535 10.19 1.98802 9.95802 1.98802 8.00002C1.98802 6.04202 1.99535 5.81002 2.03069 5.03669C2.0361 4.57177 2.12158 4.11125 2.28335 3.67535C2.40076 3.35669 2.58826 3.06848 2.83202 2.83202C3.06848 2.58826 3.35669 2.40076 3.67535 2.28335C4.11125 2.12158 4.57177 2.0361 5.03669 2.03069C5.81002 1.99535 6.04202 1.98802 8.00002 1.98802ZM8.00002 0.666687C6.00869 0.666687 5.75869 0.675354 4.97669 0.710687C4.36841 0.723258 3.76662 0.838432 3.19669 1.05135C2.70905 1.24013 2.26629 1.52881 1.89683 1.89885C1.52737 2.26888 1.23938 2.71209 1.05135 3.20002C0.838432 3.76995 0.723258 4.37174 0.710687 4.98002C0.675354 5.75869 0.666687 6.00869 0.666687 8.00002C0.666687 9.99135 0.675354 10.2414 0.710687 11.0234C0.723258 11.6316 0.838432 12.2334 1.05135 12.8034C1.24013 13.291 1.52881 13.7338 1.89885 14.1032C2.26888 14.4727 2.71209 14.7607 3.20002 14.9487C3.76995 15.1616 4.37174 15.2768 4.98002 15.2894C5.75869 15.3247 6.00869 15.3334 8.00002 15.3334C9.99135 15.3334 10.2414 15.3247 11.0234 15.2894C11.6316 15.2768 12.2334 15.1616 12.8034 14.9487C13.291 14.7599 13.7338 14.4712 14.1032 14.1012C14.4727 13.7312 14.7607 13.2879 14.9487 12.8C15.1616 12.2301 15.2768 11.6283 15.2894 11.02C15.3247 10.2414 15.3334 9.99135 15.3334 8.00002C15.3334 6.00869 15.3247 5.75869 15.2894 4.97669C15.2768 4.36841 15.1616 3.76662 14.9487 3.19669C14.7599 2.70905 14.4712 2.26629 14.1012 1.89683C13.7312 1.52737 13.2879 1.23938 12.8 1.05135C12.2301 0.838432 11.6283 0.723258 11.02 0.710687C10.2414 0.675354 9.99135 0.666687 8.00002 0.666687ZM7.99999 4.23403C7.25515 4.23403 6.52703 4.4549 5.90771 4.86871C5.2884 5.28253 4.8057 5.8707 4.52066 6.55884C4.23562 7.24699 4.16104 8.00421 4.30635 8.73474C4.45166 9.46527 4.81034 10.1363 5.33703 10.663C5.86371 11.1897 6.53475 11.5484 7.26528 11.6937C7.99581 11.839 8.75303 11.7644 9.44118 11.4794C10.1293 11.1943 10.7175 10.7116 11.1313 10.0923C11.5451 9.47299 11.766 8.74487 11.766 8.00003C11.766 7.00122 11.3692 6.04333 10.663 5.33707C9.95669 4.6308 8.9988 4.23403 7.99999 4.23403ZM7.99999 10.4447C7.51648 10.4447 7.04383 10.3013 6.64181 10.0327C6.23978 9.76407 5.92644 9.38227 5.74141 8.93556C5.55638 8.48886 5.50797 7.99732 5.6023 7.5231C5.69663 7.04888 5.92946 6.61328 6.27135 6.27139C6.61324 5.9295 7.04884 5.69666 7.52306 5.60234C7.99728 5.50801 8.48882 5.55642 8.93552 5.74145C9.38223 5.92648 9.76403 6.23982 10.0327 6.64185C10.3013 7.04387 10.4447 7.51652 10.4447 8.00003C10.4447 8.6484 10.1871 9.27021 9.72863 9.72867C9.27017 10.1871 8.64836 10.4447 7.99999 10.4447ZM12.7947 4.08534C12.7947 4.57135 12.4007 4.96534 11.9147 4.96534C11.4287 4.96534 11.0347 4.57135 11.0347 4.08534C11.0347 3.59933 11.4287 3.20534 11.9147 3.20534C12.4007 3.20534 12.7947 3.59933 12.7947 4.08534Z" fill="#202327"/>
</g>
<defs>
<clipPath id="clip0_134_228">
<rect width="16" height="16" fill="white"/>
</clipPath>
</defs>
</svg>

<svg xmlns="http://www.w3.org/2000/svg" viewBox="0 0 16 16" class="sageicon"><path fill-rule="evenodd" d="M8 1.988c1.958 0 2.19.007 2.963.043.465.005.926.09 1.362.252.318.118.607.305.843.549.244.236.431.525.549.843.161.436.247.897.252 1.362.036.773.043 1.005.043 2.963 0 1.958-.007 2.19-.043 2.963-.005.465-.09.926-.252 1.362a2.428 2.428 0 0 1-1.392 1.392 4.05 4.05 0 0 1-1.362.252c-.773.036-1.005.043-2.963.043-1.958 0-2.19-.007-2.963-.043a4.05 4.05 0 0 1-1.362-.252 2.266 2.266 0 0 1-.843-.549 2.266 2.266 0 0 1-.549-.843 4.048 4.048 0 0 1-.252-1.362C1.995 10.19 1.988 9.958 1.988 8c0-1.958.007-2.19.043-2.963.005-.465.09-.926.252-1.362.118-.318.305-.607.549-.843.236-.244.525-.431.843-.549a4.048 4.048 0 0 1 1.362-.252C5.81 1.995 6.042 1.988 8 1.988ZM8 .667c-1.991 0-2.241.008-3.023.044a5.405 5.405 0 0 0-1.78.34A3.75 3.75 0 0 0 1.05 3.2a5.405 5.405 0 0 0-.34 1.78C.675 5.759.667 6.009.667 8s.008 2.241.044 3.023c.012.609.127 1.21.34 1.78A3.75 3.75 0 0 0 3.2 14.95c.57.213 1.172.328 1.78.34.779.036 1.029.044 3.02.044s2.241-.008 3.023-.044a5.406 5.406 0 0 0 1.78-.34A3.752 3.752 0 0 0 14.95 12.8c.213-.57.328-1.172.34-1.78.036-.779.044-1.029.044-3.02s-.008-2.241-.044-3.023a5.407 5.407 0 0 0-.34-1.78A3.75 3.75 0 0 0 12.8 1.05a5.406 5.406 0 0 0-1.78-.34C10.241.675 9.991.667 8 .667Zm0 3.567a3.766 3.766 0 1 0 0 7.532 3.766 3.766 0 0 0 0-7.532Zm0 6.21a2.445 2.445 0 1 1 0-4.89 2.445 2.445 0 0 1 0 4.89Zm4.795-6.359a.88.88 0 1 1-1.76 0 .88.88 0 0 1 1.76 0Z"/></svg>
